X: 1370
T: the Ivy Leaf - 1st Setting   #2
R: reel
%S: s:2 b:11(5+6)
B: O'Neill's 1850 #1370
O: J.O'Neill
Z: Trish O'Neil
Z: Compacted by adding a repeat with multiple endings [JC]
M: C|
L: 1/8
K: A
"^A"\
|: A2(ed) cdec | A2(ec) dBGB | A2ed cdef |\
[1 {a}gfge dBGB :|[2 gedB cAHA2 |]
"^B"\
|: (ea)ag (ed)ef | {a}gfge dBGB |\
[1 eaag edez | EEE(D E)(FG)B :|\
[2 (Ac)(Bd) (ce)(df) | (eg)(fa) ged"_d.C."B |]
